Sweet-Rainbow/icons/veracrypt.svg

<?xml version="1.0" encoding="UTF-8" standalone="no"?>
<!-- Generator: Gravit.io -->

<svg
   xmlns:dc="http://purl.org/dc/elements/1.1/"
   xmlns:cc="http://creativecommons.org/ns#"
   xmlns:rdf="http://www.w3.org/1999/02/22-rdf-syntax-ns#"
   xmlns:svg="http://www.w3.org/2000/svg"
   xmlns="http://www.w3.org/2000/svg"
   xmlns:sodipodi="http://sodipodi.sourceforge.net/DTD/sodipodi-0.dtd"
   xmlns:inkscape="http://www.inkscape.org/namespaces/inkscape"
   style="isolation:isolate"
   viewBox="0 0 36 36"
   width="48"
   height="48"
   version="1.1"
   id="svg9"
   sodipodi:docname="veracrypt.svg"
   inkscape:version="0.92.4 (5da689c313, 2019-01-14)">
  <metadata
     id="metadata15">
    <rdf:RDF>
      <cc:Work
         rdf:about="">
        <dc:format>image/svg+xml</dc:format>
        <dc:type
           rdf:resource="http://purl.org/dc/dcmitype/StillImage" />
        <dc:title></dc:title>
      </cc:Work>
    </rdf:RDF>
  </metadata>
  <defs
     id="defs13" />
  <sodipodi:namedview
     pagecolor="#ffffff"
     bordercolor="#666666"
     borderopacity="1"
     objecttolerance="10"
     gridtolerance="10"
     guidetolerance="10"
     inkscape:pageopacity="0"
     inkscape:pageshadow="2"
     inkscape:window-width="640"
     inkscape:window-height="480"
     id="namedview11"
     showgrid="false"
     inkscape:zoom="29.365243"
     inkscape:cx="25.325443"
     inkscape:cy="32"
     inkscape:current-layer="svg9"
     units="px" />
  <linearGradient
     id="_lgradient_12"
     x1="0.88637114"
     y1="0.56483889"
     x2="0.24832454"
     y2="0.75411469"
     gradientTransform="matrix(47.308,0,0,30,0.346,9)"
     gradientUnits="userSpaceOnUse">
    <stop
       offset="1.3043478260869565%"
       stop-opacity="1"
       style="stop-color:rgb(55,236,186)"
       id="stop2" />
    <stop
       offset="97.82608695652173%"
       stop-opacity="1"
       style="stop-color:rgb(114,175,211)"
       id="stop4" />
  </linearGradient>
  <g
     id="g826"
     transform="matrix(0.76097066,0,0,0.76097066,-0.26329584,-0.26329584)">
    <path
       id="path7"
       d="M 28.272,30.862 24,39 H 16.764 L 0.346,9 h 7.5 L 20.52,31.909 24.643,24.124 24.577,24 h 0.132 L 32.654,9 h 15 l -4.616,6.923 h -6.923 l -4.432,8.443 4.432,8.865 h 6.923 L 47.654,39 h -15 z"
       inkscape:connector-curvature="0"
       style="fill:url(#_lgradient_12);fill-rule:evenodd" />
  </g>
</svg>

<?xml version="1.0" encoding="UTF-8" standalone="no"?><!-- Generator: Gravit.io --><svg xmlns="http://www.w3.org/2000/svg" xmlns:xlink="http://www.w3.org/1999/xlink" style="isolation:isolate" viewBox="0 0 48 48" width="48pt" height="48pt"><linearGradient id="_lgradient_12" x1="0.8863711272247857" y1="0.5648388749606124" x2="0.24832454405625126" y2="0.7541146822938629" gradientTransform="matrix(47.308,0,0,30,0.346,9)" gradientUnits="userSpaceOnUse"><stop offset="1.3043478260869565%" stop-opacity="1" style="stop-color:rgb(55,236,186)"/><stop offset="97.82608695652173%" stop-opacity="1" style="stop-color:rgb(114,175,211)"/></linearGradient><path d=" M 28.272 30.862 L 24 39 L 16.764 39 L 0.346 9 L 7.846 9 L 20.52 31.909 L 24.643 24.124 L 24.577 24 L 24.709 24 L 32.654 9 L 47.654 9 L 43.038 15.923 L 36.115 15.923 L 31.683 24.366 L 36.115 33.231 L 43.038 33.231 L 47.654 39 L 32.654 39 L 28.272 30.862 Z " fill-rule="evenodd" fill="url(#_lgradient_12)"/></svg>
